X: 1
T: Gigue du forgeron
T: Blacksmith's jig
O: Qubec
M: 6/8
L: 1/8
K: D
A \
| "D"dcd AFA | dfb "Bm"a2f | "Em"gfg "A7"Ace | "D"dfd "(A7)"AFA \
| "D"dcd AFA | dfb "B7"a2f | "Em"gfg "A7"Ace | "D"d2d d2 :|
|: a \
| "G"b3- bag | "D"faa agf | "Em"gfg "A7"Ace | "(D)"ba^g "D"a2a \
| "G"b3- bag | "D"faa "Bm"agf | "Em"gfg "A7"Ace | "D"d2d d2 :|
